X: 21317
T: Kenmure Mansions
R: reel
M: 4/4
K: Fmajor
|:AF~F2 AFBG|AFAc dBGB|AF~F2 EFCF|1 EGcA BGcB:|2 EGcA B2AG||
|:F2AF CFA,F|CFA,C B,G,~G,2|F2AF CFA,F|1 EGcA B2AG:|2 EGcA Bcde||
f2af cfAf|f2af dBGe|f2af cfAc|dBGe fcde|
f2af cfAf|f2af dBGe|fgaf cAFD|EGcA BGcB||

